X:41
T:Yellow Hair Laddie,The. JJo.041
S:J.Jones MS,1801,N.Shrops.
A:N Shropshire
B:cf “The Yellow Hair’d Laddie” -“In April when Primroses paint the sweet plain,
B:and summer approaching rejoiceth the swain….” Lester S Levy collection of sheet music.
B:http://levysheetmusic.jhu.edu/index.html
Z:Neil Brookes 2006
M:3/4
L:1/8
Q:1/4=80
K:F
F>G|A>B c2d>e|f3ga2|c2dcBA|TA2G2F>G|!
A>B c2d>e|f>efg a2|c>dc>A G>A|F4||!
f>g|a>bc’>ag>f|e>fg>ed>c|d>efdcA|TA2G2F>G|!
A>B c2d>e|f>efg a2|c>dc>A TG2|F4|]

